X:1
T:Minnelied
T:Adam de la Halle (1240) Satz: Gustav Weber
T:Minnelied
T:CPDL   —   Creative Commons Attribution Non Commercial 3.0
C:Adam de la Halle
Z:CPDL   —   Creative Commons Attribution Non Commercial 3.0
%%score [ ( 1 2 ) ( 3 4 ) ]
L:1/8
Q:1/4=88
M:3/4
K:D
V:1 treble-8 nm="Tenor"
V:2 treble-8 
V:3 bass nm="Bass"
V:4 bass 
V:1
"^Sehr zart"!p! (d2 e2) f2 | ed c4 | d2 e4 | d4 z2 | (d2 e2) f2 | ed c4 | d2 e4 | d4 z2 | %8
w: 1.  Komm, _ o|komm, * Ge-|sel- le|mein!|Seh- * nend|wart' * ich|lan- ge|dein.|
w: 2.  Sü- * ßer,|ro- * sen-|farb'- ner|Mund!|Komm _ und|ma- * che|mich ge-|sund!|
!p! (!>!f2 a4) | (!>!g2 a4) | (f2 d2) e2 | f2 f4 | e2 e4 | d4 z2 |!pp! (!>!f2 a4) | (!>!g2 a4) | %16
w: Seh- *|nend _|wart' _ ich|lan- ge,|lan- ge|dein.|Komm, _|komm, _|
w: Komm, _|komm, _|komm _ und|ma- che|mich ge-|sund!|Komm, _|komm, _|
 (f2 d2) e2 | f2 f4 | e2 e4 | d4 z2 |] %20
w: komm, _ o|komm, Ge-|sel- le|mein!|
w: sü- * ßer,|ro- sen-|farb'- ner|Mund!|
V:2
 A4 A2 | B2 A4 | F2 A4 | A4 x2 | A4 A2 | B2 A4 | F2 A4 | A4 x2 | d6 | (B2 c4) | (A2 B2) B2 | %11
 c2 c4 | c2 c4 | A4 x2 | d6 | (B2 c4) | (A2 B2) B2 | c2 c4 | c2 c4 | A4 x2 |] %20
V:3
!p! (F,2 G,2) A,2 | G,F, E,4 | D,4 C,2 | F,4 z2 | (F,2 G,2) A,2 | G,F, E,4 | D,4 C,2 | F,4 z2 | %8
!p! (!>!A,2 F,4) | (!>!G,2 E,4) | F,4 G,2 | A,2 A,4 | G,4 A,2 | F,4 z2 |!pp! (!>!A,2 F,4) | %15
 (!>!G,2 E,4) | F,4 G,2 | A,2 A,4 | G,4 A,2 | F,4 z2 |] %20
V:4
 D,4 D,2 | G,,2 A,,4 | B,,2 A,,4 | D,4 x2 | D,4 D,2 | G,,2 A,,4 | B,,2 A,,4 | D,4 x2 | D,6 | %9
 (E,2 A,,4) | (D,2 B,,2) G,,2 | F,,2 F,,4 | A,,2 A,,4 | D,4 x2 | D,6 | (E,2 A,,4) | %16
 (D,2 B,,2) G,,2 | F,,2 F,,4 | A,,2 A,,4 | D,4 x2 |] %20

